!!!OTL: So leb denn wohl du stilles Haus (2-15), S. 34
!!!id: K1107
**kern
*clefG2
*k[]
*F:
{8cc
8b
8cc
=1
4.dd
8cc
8b-
8g
=2
4f}
8r
=3
{8cc
8b
8cc
=4
4.ee
8dd
8cc
8b-
=5
4a}
8r
=6
{8cc
8b
8cc
=7
4.ee
8cc
8dd
8ee
=8
4.ff}
=9
{8a
8g
8a
=10
4.dd
8cc
8b-
8g
=11
4f}
8r
==
*-
!!!minrhy: 8
!!!meters: 3/4 ]  ZZ[4
!!!cut: So leb denn wohl du stilles Haus (2-15), S. 34
!!!reg: Luxemburg
!!!trd: KINTZELE, Guillaume: An der Ucht, Bd. 2, Luxemburg 1927
!!!rhy1: XXX  X_.XXX  X_0
!!!rhy2: XXX  X_.XXX  X_0
!!!key: K1107  08  F 3/4 ]  ZZ[4
!!!mod: ACHTTONSKALA DUR ?]  AMBITUS[8
!!!kad: 13+11
!!!akz: 61_73_7+1_61_
!!!fot: 'a__b__c__aw_
!!!for: 'a__a__av_a__
!!!fok: '\__^d_/__^d_
!! PHRAS[AUFTAKTIG]
!!!fkt: Abschied, Bitte um Treue
!!!bem: in der Quelle mit einer 2. Stimme versehen
!! KINTZELE
!! PR[36] 2K[5] 2G[16] 3K[7] 3G[5] 4A[0] 4Ü[0] 5A[0] 6K[0] 6G[0]
!! 7K[0] 7G[0] 8A[0] MEHR[0] SI[32] ABS[44] SR[20] SP[11]
!! ST[12] 2k[5] 2g[20] 3k[5] 3g[2] 4d[0] 4ü[0] 5d[0] 6k[0] 6g[0]
!! 7k[0] 7g[0] 8d[0] mehr[0] si[32] dm[0] sr[25] sp[7]
!! 1F[17] 2F[58] 3F[13] 4F[0] LF[0] 2P[0] 3P[0] 4P[0] TRI[0] DF[4] AB[48]
!! TF[0] U3K[0] U3[0] U4[0] U4Ü[0] U5[0] U6K[0] U6[0] U7K[0] U7[0]
!! N1[9] N2K[0] N2[27] N3K[0] N3[36] N4[4] N4Ü[0] N5[16] N6K[0] N6[9]
!!!n7k: 0] N7[0] O1[0] O2K[0] O2[0] O3K[0] O3[0] HÖ[0
